Newaita/actions/24/align-vertical-top.svg

<svg height="24" viewBox="0 0 24 24" width="24" xmlns="http://www.w3.org/2000/svg"><g fill="#424242"><path d="m21.832031 3.660156c0 .273438-.222656.496094-.496093.496094h-18.855469c-.273438 0-.496094-.222656-.496094-.496094 0-.273437.222656-.496094.496094-.496094h18.855469c.273437 0 .496093.222657.496093.496094zm0 0"/><path d="m20.339844 7.132812c0-1.097656-.882813-1.984374-1.984375-1.984374h-3.96875c-1.097657 0-1.984375.886718-1.984375 1.984374v11.90625c0 1.101563.886718 1.988282 1.984375 1.988282h3.96875c1.101562 0 1.984375-.886719 1.984375-1.988282zm-1.984375.496094v10.914063c0 .277343-.21875.496093-.496094.496093h-2.976563c-.273437 0-.496093-.21875-.496093-.496093v-10.914063c0-.273437.222656-.496094.496093-.496094h2.976563c.277344 0 .496094.222657.496094.496094zm0 0"/><path d="m10.417969 7.132812c0-1.097656-.882813-1.984374-1.984375-1.984374h-2.976563c-1.097656 0-1.984375.886718-1.984375 1.984374v5.953126c0 1.101562.886719 1.984374 1.984375 1.984374h2.976563c1.101562 0 1.984375-.882812 1.984375-1.984374zm-1.984375.496094v4.960938c0 .277344-.21875.496094-.496094.496094h-1.984375c-.273437 0-.496094-.21875-.496094-.496094v-4.960938c0-.273437.222657-.496094.496094-.496094h1.984375c.277344 0 .496094.222657.496094.496094zm0 0"/></g></svg>

<svg xmlns="http://www.w3.org/2000/svg" xmlns:xlink="http://www.w3.org/1999/xlink" width="24px" height="24px" viewBox="0 0 24 24" version="1.1">
<g id="surface1">
     <defs>
  <style id="current-color-scheme" type="text/css">
   .ColorScheme-Text { color:#424242; } .ColorScheme-Highlight { color:#eeeeee; }
  </style>
 </defs>
<path style="fill:currentColor" class="ColorScheme-Text" d="M 21.832031 3.660156 C 21.832031 3.933594 21.609375 4.15625 21.335938 4.15625 L 2.480469 4.15625 C 2.207031 4.15625 1.984375 3.933594 1.984375 3.660156 C 1.984375 3.386719 2.207031 3.164062 2.480469 3.164062 L 21.335938 3.164062 C 21.609375 3.164062 21.832031 3.386719 21.832031 3.660156 Z M 21.832031 3.660156 "/>
     <defs>
  <style id="current-color-scheme" type="text/css">
   .ColorScheme-Text { color:#424242; } .ColorScheme-Highlight { color:#eeeeee; }
  </style>
 </defs>
<path style="fill:currentColor" class="ColorScheme-Text" d="M 20.339844 7.132812 C 20.339844 6.035156 19.457031 5.148438 18.355469 5.148438 L 14.386719 5.148438 C 13.289062 5.148438 12.402344 6.035156 12.402344 7.132812 L 12.402344 19.039062 C 12.402344 20.140625 13.289062 21.027344 14.386719 21.027344 L 18.355469 21.027344 C 19.457031 21.027344 20.339844 20.140625 20.339844 19.039062 Z M 18.355469 7.628906 L 18.355469 18.542969 C 18.355469 18.820312 18.136719 19.039062 17.859375 19.039062 L 14.882812 19.039062 C 14.609375 19.039062 14.386719 18.820312 14.386719 18.542969 L 14.386719 7.628906 C 14.386719 7.355469 14.609375 7.132812 14.882812 7.132812 L 17.859375 7.132812 C 18.136719 7.132812 18.355469 7.355469 18.355469 7.628906 Z M 18.355469 7.628906 "/>
     <defs>
  <style id="current-color-scheme" type="text/css">
   .ColorScheme-Text { color:#424242; } .ColorScheme-Highlight { color:#eeeeee; }
  </style>
 </defs>
<path style="fill:currentColor" class="ColorScheme-Text" d="M 10.417969 7.132812 C 10.417969 6.035156 9.535156 5.148438 8.433594 5.148438 L 5.457031 5.148438 C 4.359375 5.148438 3.472656 6.035156 3.472656 7.132812 L 3.472656 13.085938 C 3.472656 14.1875 4.359375 15.070312 5.457031 15.070312 L 8.433594 15.070312 C 9.535156 15.070312 10.417969 14.1875 10.417969 13.085938 Z M 8.433594 7.628906 L 8.433594 12.589844 C 8.433594 12.867188 8.214844 13.085938 7.9375 13.085938 L 5.953125 13.085938 C 5.679688 13.085938 5.457031 12.867188 5.457031 12.589844 L 5.457031 7.628906 C 5.457031 7.355469 5.679688 7.132812 5.953125 7.132812 L 7.9375 7.132812 C 8.214844 7.132812 8.433594 7.355469 8.433594 7.628906 Z M 8.433594 7.628906 "/>
</g>
</svg>
